X:1
T:Title
L:1/8
M:4/4
K:Ab
V:1 treble nm="Grand Piano"
V:1
 z4 z2[Q:1/4=100] cB | A2 AG F2 B2 | G2 GF =E2 F2 | =D2 =E2 F2 G2 | F6 F2 | B3 B B2 F2 | %6
 A3 A A2 F2 | G2 A2 B2 c2 | c6 dc | B2 B2 BdcB | A2 A2 A2 BA | G2 A2 B2 c2 | G6 FG | A2 A2 F2 F2 | %14
 B2 B2 B3 G | A2 B2 c2 Bd | c6 cc | c6 A2 | _c3 c =c2 cc | c6 A2 | _c3 c =c2 BB | B3 =A BdcB | %22
 A3 A F2 GG | G2 F2 =E2 B2 | G6 A2 | F4 A4 | F6 z2 |] %27

